X:170
T:The Limerick Lasses* / The Hare's Paw
R:reel
M:C|
Z:Julie Ross
K:D
"The Limerick Lasses"
dBAF DEFD|GFGA B~E3|dBAF D2FD|GBAG FD~D2:|
|:dcde f3d|efed cA~A2|(3Bcd ef geag|fdec d2dA:|
|:BdAd BdAd|(3Bcd ef gfed|BdAd Bdag|faeg fdd2:|
K:G
"The Hare's Paw"
G3B A2GA|BE~E2 GEDE|~G3A BABd|1 (3efg fg edBA:|2 (3efg fg ~e3f||
g2fg edBc|d2ed Bdef|g2fg edBd|egfg ~e3f|
g2fg edBc|d2ed BABd|e3f edBd egfa gedB||
